X: 2
T: The One-Horned Sheep
N: RJ J-64
Z: Transcribed to abc by Mary Lou Knack
R: jig
M: 6/8
K: G
|:\
"G"g2G GFG | "C"EGG "G"DGG | g2G GFG | "Am"EAG "D"FED |\
"G"g2G GFG | "C"EGG "G"DGG | "C"EGG "D"FGA | "G"BGF G3 :|
|:\
"G"GBd dBd | GAB d3 | GBd dcB | "D"cdc A3 |\
"G"GBd dBd | GAB def | "C"gfe dBG |1 "D"ABA G3 :|2 "D"ABc def |]


